X: 3282
M: 6/8
L: 1/8
K: C
|:\
g2e g2e | g2e ceg | a2f a2f | a2f def |\
g2e g2e | ge2 cde | ded cBA | G^FG BAG |]


